markup/sourceimages/icon8.svg

<svg xmlns="http://www.w3.org/2000/svg" width="55" height="55"><path fill-rule="evenodd" fill="#0E1C28" d="M48.808 52.502a12.107 12.107 0 0 1-7.558 2.497 12.107 12.107 0 0 1-7.558-2.497 9.65 9.65 0 0 0-6.192-2.087 9.65 9.65 0 0 0-6.192 2.087 12.107 12.107 0 0 1-7.558 2.497 12.107 12.107 0 0 1-7.558-2.497A9.65 9.65 0 0 0 0 50.415v-2.293a12.114 12.114 0 0 1 7.558 2.498 9.656 9.656 0 0 0 6.192 2.087 9.656 9.656 0 0 0 6.192-2.087 12.108 12.108 0 0 1 7.558-2.498 12.114 12.114 0 0 1 7.558 2.498c3.617 2.783 8.766 2.783 12.384 0A12.108 12.108 0 0 1 55 48.122v2.293a9.65 9.65 0 0 0-6.192 2.087zm-7.558-8.964a12.114 12.114 0 0 1-7.558-2.498 9.656 9.656 0 0 0-6.192-2.087 9.656 9.656 0 0 0-6.192 2.087 12.108 12.108 0 0 1-7.558 2.498 12.114 12.114 0 0 1-7.558-2.498A9.656 9.656 0 0 0 0 38.953v-2.292a12.113 12.113 0 0 1 7.558 2.497 9.651 9.651 0 0 0 6.192 2.088 9.651 9.651 0 0 0 6.192-2.088 12.113 12.113 0 0 1 7.558-2.497 12.113 12.113 0 0 1 7.558 2.497c3.617 2.783 8.766 2.783 12.384 0A12.113 12.113 0 0 1 55 36.661v2.292a9.656 9.656 0 0 0-6.192 2.087 12.108 12.108 0 0 1-7.558 2.498zm0-11.462a12.107 12.107 0 0 1-7.558-2.497 9.645 9.645 0 0 0-6.192-2.087 9.645 9.645 0 0 0-6.192 2.087 12.107 12.107 0 0 1-7.558 2.497 12.107 12.107 0 0 1-7.558-2.497A9.645 9.645 0 0 0 0 27.492v-2.293a12.114 12.114 0 0 1 7.558 2.498c.304.243.624.466.956.669l4.665-2.685c.046-.209.153-.409.322-.571l6.647-6.388-.822-.789c-3.217-3.103-3.217-8.113 0-11.215L25.983.321a1.268 1.268 0 0 1 1.693 0l3.328 3.198a1.112 1.112 0 0 1 0 1.619l-4.161 3.998a3.291 3.291 0 0 0 0 4.778l.895.859c-.014-2.044.79-4.093 2.411-5.657 3.219-3.091 8.443-3.096 11.668-.011l.012.011c3.216 3.103 3.216 8.112 0 11.214-1.518 1.467-3.576 2.3-5.728 2.322l7.22 6.922a10.063 10.063 0 0 0 4.121-1.877c2.139-1.651 4.812-2.534 7.558-2.498v2.293a9.645 9.645 0 0 0-6.192 2.087 12.107 12.107 0 0 1-7.558 2.497zm-30.048-2.584a9.777 9.777 0 0 0 2.548.292 9.79 9.79 0 0 0 2.611-.308l-1.922-1.846-3.237 1.862zm13.954-13.958c-2.299-2.218-2.299-5.799 0-8.016l3.32-3.189-1.647-1.576-5.809 5.584c-2.289 2.207-2.289 5.771 0 7.977l1.664 1.598a1.113 1.113 0 0 1 0 1.62l-6.647 6.387 2.699 2.594a9.489 9.489 0 0 0 1.206-.816c2.139-1.651 4.812-2.534 7.558-2.498a12.228 12.228 0 0 1 4.892.949l1.086-1.038a1.088 1.088 0 0 0 0-1.58l-8.322-7.996zm14.979-4.799a5.953 5.953 0 0 0-4.146-1.651 6.066 6.066 0 0 0-2.121.38l7.589 7.294c.81-2.019.37-4.392-1.322-6.023zm-.011 7.988l-8.296-7.973c-2.273 2.208-2.269 5.76.015 7.962 2.284 2.194 5.991 2.198 8.281.011zm-4.228 6.975a3.398 3.398 0 0 1-.731 1.027l-.623.598c.175.121.347.244.516.374a10.1 10.1 0 0 0 5.031 2.021l-4.193-4.02zm14.321-8.522h2.392v2.292h-2.392v-2.292zm-2.391-2.292h2.391v2.292h-2.391v-2.292zM43.043 3.422h2.392v2.293h-2.392V3.422zm-29.891 0h2.391v2.293h-2.391V3.422zm-8.369 9.169h2.391v2.293H4.783v-2.293zm-2.392-2.292h2.392v2.292H2.391v-2.292z"/></svg>

<svg 
 xmlns="http://www.w3.org/2000/svg"
 xmlns:xlink="http://www.w3.org/1999/xlink"
 width="55px" height="55px">
<path fill-rule="evenodd"  fill="rgb(14, 28, 40)"
 d="M48.808,52.502 C46.669,54.153 43.996,55.037 41.250,54.999 C38.504,55.037 35.831,54.153 33.692,52.502 C31.957,51.116 29.759,50.374 27.500,50.415 C25.241,50.374 23.043,51.116 21.308,52.502 C19.169,54.153 16.496,55.037 13.750,54.999 C11.004,55.037 8.331,54.153 6.192,52.502 C4.457,51.116 2.259,50.374 0.000,50.415 L0.000,48.122 C2.746,48.085 5.419,48.969 7.558,50.620 C9.293,52.006 11.491,52.747 13.750,52.707 C16.009,52.747 18.207,52.006 19.942,50.620 C22.081,48.968 24.754,48.085 27.500,48.122 C30.246,48.085 32.919,48.969 35.058,50.620 C38.675,53.403 43.824,53.403 47.442,50.620 C49.581,48.968 52.254,48.085 55.000,48.122 L55.000,50.415 C52.741,50.374 50.543,51.116 48.808,52.502 ZM41.250,43.538 C38.504,43.575 35.831,42.691 33.692,41.040 C31.957,39.654 29.759,38.913 27.500,38.953 C25.241,38.913 23.043,39.654 21.308,41.040 C19.169,42.692 16.496,43.575 13.750,43.538 C11.004,43.575 8.331,42.691 6.192,41.040 C4.457,39.654 2.259,38.913 0.000,38.953 L0.000,36.661 C2.746,36.624 5.419,37.507 7.558,39.158 C9.293,40.545 11.491,41.286 13.750,41.246 C16.009,41.286 18.207,40.545 19.942,39.158 C22.081,37.507 24.754,36.624 27.500,36.661 C30.246,36.624 32.919,37.507 35.058,39.158 C38.675,41.941 43.824,41.941 47.442,39.158 C49.581,37.507 52.254,36.624 55.000,36.661 L55.000,38.953 C52.741,38.913 50.543,39.654 48.808,41.040 C46.669,42.692 43.996,43.575 41.250,43.538 ZM41.250,32.076 C38.504,32.114 35.831,31.230 33.692,29.579 C31.957,28.192 29.759,27.451 27.500,27.492 C25.241,27.451 23.043,28.192 21.308,29.579 C19.169,31.230 16.496,32.114 13.750,32.076 C11.004,32.114 8.331,31.230 6.192,29.579 C4.457,28.192 2.259,27.451 0.000,27.492 L0.000,25.199 C2.746,25.162 5.419,26.046 7.558,27.697 C7.862,27.940 8.182,28.163 8.514,28.366 L13.179,25.681 C13.225,25.472 13.332,25.272 13.501,25.110 L20.148,18.722 L19.326,17.933 C16.109,14.830 16.109,9.820 19.326,6.718 L25.983,0.321 C26.457,-0.111 27.201,-0.111 27.676,0.321 L31.004,3.519 C31.470,3.966 31.470,4.691 31.004,5.138 L26.843,9.136 C25.473,10.458 25.473,12.592 26.843,13.914 L27.738,14.773 C27.724,12.729 28.528,10.680 30.149,9.116 C33.368,6.025 38.592,6.020 41.817,9.105 C41.821,9.109 41.825,9.112 41.829,9.116 C45.045,12.219 45.045,17.228 41.829,20.330 C40.311,21.797 38.253,22.630 36.101,22.652 L43.321,29.574 C44.792,29.273 46.206,28.647 47.442,27.697 C49.581,26.046 52.254,25.163 55.000,25.199 L55.000,27.492 C52.741,27.451 50.543,28.192 48.808,29.579 C46.669,31.230 43.996,32.114 41.250,32.076 ZM11.202,29.492 C12.027,29.699 12.884,29.799 13.750,29.784 C14.638,29.800 15.516,29.693 16.361,29.476 L14.439,27.630 L11.202,29.492 ZM25.156,15.534 C22.857,13.316 22.857,9.735 25.156,7.518 L28.476,4.329 L26.829,2.753 L21.020,8.337 C18.731,10.544 18.731,14.108 21.020,16.314 L22.684,17.912 C23.150,18.360 23.150,19.084 22.684,19.532 L16.037,25.919 L18.736,28.513 C19.157,28.272 19.561,28.001 19.942,27.697 C22.081,26.046 24.754,25.163 27.500,25.199 C29.195,25.176 30.861,25.506 32.392,26.148 L33.478,25.110 C33.931,24.673 33.931,23.967 33.478,23.530 L25.156,15.534 ZM40.135,10.735 C39.039,9.676 37.546,9.081 35.989,9.084 C35.256,9.083 34.538,9.215 33.868,9.464 L41.457,16.758 C42.267,14.739 41.827,12.366 40.135,10.735 ZM40.124,18.723 L31.828,10.750 C29.555,12.958 29.559,16.510 31.843,18.712 C34.127,20.906 37.834,20.910 40.124,18.723 ZM35.896,25.698 C35.725,26.070 35.482,26.419 35.165,26.725 L34.542,27.323 C34.717,27.444 34.889,27.567 35.058,27.697 C36.546,28.842 38.295,29.515 40.089,29.718 L35.896,25.698 ZM50.217,17.176 L52.609,17.176 L52.609,19.468 L50.217,19.468 L50.217,17.176 ZM47.826,14.884 L50.217,14.884 L50.217,17.176 L47.826,17.176 L47.826,14.884 ZM43.043,3.422 L45.435,3.422 L45.435,5.715 L43.043,5.715 L43.043,3.422 ZM13.152,3.422 L15.543,3.422 L15.543,5.715 L13.152,5.715 L13.152,3.422 ZM4.783,12.591 L7.174,12.591 L7.174,14.884 L4.783,14.884 L4.783,12.591 ZM2.391,10.299 L4.783,10.299 L4.783,12.591 L2.391,12.591 L2.391,10.299 Z"/>
</svg>
